gtk-icons/Papirus-GTK/16x16/mimetypes/image-x-svg+xml.svg

<?xml version="1.0" encoding="UTF-8" standalone="no"?>
<svg
   xmlns:dc="http://purl.org/dc/elements/1.1/"
   xmlns:cc="http://creativecommons.org/ns#"
   xmlns:rdf="http://www.w3.org/1999/02/22-rdf-syntax-ns#"
   xmlns:svg="http://www.w3.org/2000/svg"
   xmlns="http://www.w3.org/2000/svg"
   xmlns:sodipodi="http://sodipodi.sourceforge.net/DTD/sodipodi-0.dtd"
   xmlns:inkscape="http://www.inkscape.org/namespaces/inkscape"
   width="16px"
   height="16px"
   viewBox="0 0 16 16"
   version="1.1"
   id="svg2"
   inkscape:version="0.91 r"
   sodipodi:docname="image-x-svg+xml.svg">
  <metadata
     id="metadata21">
    <rdf:RDF>
      <cc:Work
         rdf:about="">
        <dc:format>image/svg+xml</dc:format>
        <dc:type
           rdf:resource="http://purl.org/dc/dcmitype/StillImage" />
      </cc:Work>
    </rdf:RDF>
  </metadata>
  <defs
     id="defs19" />
  <sodipodi:namedview
     pagecolor="#ffffff"
     bordercolor="#666666"
     borderopacity="1"
     objecttolerance="10"
     gridtolerance="10"
     guidetolerance="10"
     inkscape:pageopacity="0"
     inkscape:pageshadow="2"
     inkscape:window-width="1535"
     inkscape:window-height="876"
     id="namedview17"
     showgrid="false"
     inkscape:zoom="14.75"
     inkscape:cx="-4.0338983"
     inkscape:cy="8"
     inkscape:window-x="65"
     inkscape:window-y="24"
     inkscape:window-maximized="1"
     inkscape:current-layer="svg2" />
  <g
     id="surface1"
     transform="translate(-0.5,0)">
    <path
       style="fill:#bd9966;fill-opacity:1;fill-rule:nonzero;stroke:none"
       d="m 14.5,13.332031 0,-10.664062 C 14.5,2.296875 14.210938,2 13.851562,2 L 2.148438,2 C 1.789062,2 1.5,2.296875 1.5,2.667969 l 0,10.664062 C 1.5,13.703125 1.789062,14 2.148438,14 l 11.703124,0 C 14.210938,14 14.5,13.703125 14.5,13.332031 Z m 0,0"
       id="path5"
       inkscape:connector-curvature="0" />
    <path
       style="fill:#ffffff;fill-opacity:1;fill-rule:nonzero;stroke:none"
       d="M 5.25,7.5 C 5.25,8.191406 4.691406,8.75 4,8.75 3.308594,8.75 2.75,8.191406 2.75,7.5 2.75,6.808594 3.308594,6.25 4,6.25 c 0.691406,0 1.25,0.558594 1.25,1.25 z m 0,0"
       id="path7"
       inkscape:connector-curvature="0" />
    <path
       style="fill:none;stroke:#ffffff;stroke-width:3;stroke-linecap:butt;stroke-linejoin:miter;stroke-miterlimit:4;stroke-opacity:1"
       d="M 16,29 28,44 47,40"
       transform="scale(0.25,0.25)"
       id="path9"
       inkscape:connector-curvature="0" />
    <path
       style="fill:#ffffff;fill-opacity:0.10196102;fill-rule:nonzero;stroke:none"
       d="M 2.148438,2 C 1.789062,2 1.5,2.296875 1.5,2.667969 l 0,0.5 C 1.5,2.796875 1.789062,2.5 2.148438,2.5 l 11.703124,0 C 14.210938,2.5 14.5,2.796875 14.5,3.167969 l 0,-0.5 C 14.5,2.296875 14.210938,2 13.851562,2 Z m 0,0"
       id="path11"
       inkscape:connector-curvature="0" />
    <path
       style="fill:#ffffff;fill-opacity:1;fill-rule:nonzero;stroke:none"
       d="m 13,10 c 0,0.691406 -0.558594,1.25 -1.25,1.25 -0.691406,0 -1.25,-0.558594 -1.25,-1.25 0,-0.691406 0.558594,-1.25 1.25,-1.25 0.691406,0 1.25,0.558594 1.25,1.25 z m 0,0"
       id="path13"
       inkscape:connector-curvature="0" />
    <path
       style="fill:#ffffff;fill-opacity:1;fill-rule:nonzero;stroke:none"
       d="M 8.25,10.75 C 8.25,11.441406 7.691406,12 7,12 6.308594,12 5.75,11.441406 5.75,10.75 5.75,10.058594 6.308594,9.5 7,9.5 c 0.691406,0 1.25,0.558594 1.25,1.25 z m 0,0"
       id="path15"
       inkscape:connector-curvature="0" />
  </g>
</svg>

<?xml version="1.0" encoding="UTF-8" standalone="no"?>
<svg id="svg2" xmlns:rdf="http://www.w3.org/1999/02/22-rdf-syntax-ns#" xmlns="http://www.w3.org/2000/svg" height="16px" width="16px" version="1.1" xmlns:cc="http://creativecommons.org/ns#" xmlns:dc="http://purl.org/dc/elements/1.1/" viewBox="0 0 16 16">
 <metadata id="metadata21">
  <rdf:RDF>
   <cc:Work rdf:about="">
    <dc:format>image/svg+xml</dc:format>
    <dc:type rdf:resource="http://purl.org/dc/dcmitype/StillImage"/>
   </cc:Work>
  </rdf:RDF>
 </metadata>
 <g id="surface1" transform="translate(-.5)">
  <path id="path5" d="m14.5 13.332v-10.664c0-0.3711-0.289-0.668-0.648-0.668h-11.704c-0.3589 0-0.648 0.2969-0.648 0.668v10.664c0 0.371 0.2891 0.668 0.6484 0.668h11.703c0.36 0 0.649-0.297 0.649-0.668z" fill="#bd9966"/>
  <path id="path7" d="m5.25 7.5c0 0.6914-0.5586 1.25-1.25 1.25s-1.25-0.5586-1.25-1.25 0.5586-1.25 1.25-1.25c0.69141 0 1.25 0.55859 1.25 1.25z" fill="#fff"/>
  <path id="path9" d="m16 29 12 15 19-4" transform="scale(.25)" stroke="#fff" stroke-width="3" fill="none"/>
  <path id="path11" d="m2.1484 2c-0.3593 0-0.6484 0.2969-0.6484 0.668v0.5c0-0.3711 0.2891-0.668 0.6484-0.668h11.703c0.36 0 0.649 0.2969 0.649 0.668v-0.5c0-0.3711-0.289-0.668-0.648-0.668z" fill-opacity=".10196" fill="#fff"/>
  <path id="path13" d="m13 10c0 0.69141-0.55859 1.25-1.25 1.25s-1.25-0.55859-1.25-1.25 0.55859-1.25 1.25-1.25 1.25 0.55859 1.25 1.25z" fill="#fff"/>
  <path id="path15" d="m8.25 10.75c0 0.691-0.5586 1.25-1.25 1.25s-1.25-0.559-1.25-1.25 0.5586-1.25 1.25-1.25c0.69141 0 1.25 0.55859 1.25 1.25z" fill="#fff"/>
 </g>
</svg>
